lib/svg/file-ppt.svg

<svg width="32" height="32" viewBox="0 0 32 32" fill="none" xmlns="http://www.w3.org/2000/svg">
<path fill-rule="evenodd" clip-rule="evenodd" d="M16 6.00003H9.25C8.91132 6.00003 8.59091 6.13179 8.35813 6.3594C8.12611 6.58626 8 6.88911 8 7.20003V24.8C8 25.1109 8.12611 25.4138 8.35813 25.6407C8.59091 25.8683 8.91132 26 9.25 26H22.75C23.0887 26 23.4091 25.8683 23.6419 25.6407C23.8739 25.4138 24 25.1109 24 24.8V14H17C16.4477 14 16 13.5523 16 13V6.00003ZM26 13.0079V24.8C26 25.6561 25.652 26.4724 25.0401 27.0707C24.429 27.6682 23.6048 28 22.75 28H9.25C8.39521 28 7.57102 27.6682 6.95989 27.0707C6.348 26.4724 6 25.6561 6 24.8V7.20003C6 6.34399 6.348 5.52768 6.95989 4.92939C7.57102 4.33184 8.39521 4.00003 9.25 4.00003H16.9921C16.9972 3.99999 17.0023 3.99999 17.0074 4.00003H17.125C17.3863 4.00003 17.6373 4.10233 17.8241 4.28502L25.6991 11.985C25.8915 12.1732 26 12.4309 26 12.7V12.9926C26 12.9977 26 13.0028 26 13.0079ZM18 12V7.41424L22.5858 12H18Z" fill="#4364E8"/>
<rect x="8" y="17" width="16" height="9" fill="#4364E8"/>
<path d="M11.8516 21.0742C11.8516 20.7747 11.7721 20.5612 11.6133 20.4336C11.457 20.306 11.237 20.2422 10.9531 20.2422H9.83203V21.9375H10.9531C11.237 21.9375 11.457 21.8685 11.6133 21.7305C11.7721 21.5924 11.8516 21.3737 11.8516 21.0742ZM13.043 21.0664C13.043 21.7461 12.8711 22.2266 12.5273 22.5078C12.1836 22.7891 11.6927 22.9297 11.0547 22.9297H9.83203V25H8.63672V19.2422H11.1445C11.7227 19.2422 12.1836 19.3906 12.5273 19.6875C12.8711 19.9844 13.043 20.444 13.043 21.0664Z" fill="white"/>
<path d="M17.1875 21.0742C17.1875 20.7747 17.1081 20.5612 16.9492 20.4336C16.793 20.306 16.5729 20.2422 16.2891 20.2422H15.168V21.9375H16.2891C16.5729 21.9375 16.793 21.8685 16.9492 21.7305C17.1081 21.5924 17.1875 21.3737 17.1875 21.0742ZM18.3789 21.0664C18.3789 21.7461 18.207 22.2266 17.8633 22.5078C17.5195 22.7891 17.0286 22.9297 16.3906 22.9297H15.168V25H13.9727V19.2422H16.4805C17.0586 19.2422 17.5195 19.3906 17.8633 19.6875C18.207 19.9844 18.3789 20.444 18.3789 21.0664Z" fill="white"/>
<path d="M23.4648 19.2422V20.2617H21.7422V25H20.5312V20.2617H18.8008V19.2422H23.4648Z" fill="white"/>
</svg>

<svg xmlns="http://www.w3.org/2000/svg" width="32" height="32" fill="none" viewBox="0 0 32 32">
  <g class="file / ppt">
    <path  fill-rule="evenodd" d="M16 6H9.25c-.339 0-.66.132-.892.36-.232.226-.358.53-.358.84v17.6c0 .31.126.614.358.84.233.228.553.36.892.36h13.5c.339 0 .66-.132.892-.36.232-.226.358-.53.358-.84V14h-7a1 1 0 01-1-1V6zm10 7.008V24.8c0 .856-.348 1.672-.96 2.27a3.276 3.276 0 01-2.29.93H9.25a3.276 3.276 0 01-2.29-.93A3.175 3.175 0 016 24.8V7.2c0-.856.348-1.672.96-2.27A3.276 3.276 0 019.25 4h7.875a1 1 0 01.7.285l7.874 7.7A1 1 0 0126 12.7v.308zM18 12V7.414L22.586 12H18z" class="Union" clip-rule="evenodd"/>
    <path  d="M8 17h16v9H8z" class="Rectangle 65"/>
    <g class="PPT">
      <path  d="M11.852 21.074c0-.3-.08-.513-.239-.64-.156-.128-.376-.192-.66-.192H9.832v1.695h1.121c.284 0 .504-.069.66-.207.16-.138.239-.356.239-.656zm1.191-.008c0 .68-.172 1.16-.516 1.442-.343.281-.834.422-1.472.422H9.832V25H8.637v-5.758h2.508c.578 0 1.039.149 1.382.445.344.297.516.757.516 1.38zM17.188 21.074c0-.3-.08-.513-.239-.64-.156-.128-.376-.192-.66-.192h-1.121v1.695h1.121c.284 0 .504-.069.66-.207.16-.138.238-.356.238-.656zm1.19-.008c0 .68-.171 1.16-.515 1.442-.343.281-.834.422-1.472.422h-1.223V25h-1.195v-5.758h2.507c.579 0 1.04.149 1.383.445.344.297.516.757.516 1.38zM23.465 19.242v1.02h-1.723V25h-1.21v-4.738H18.8v-1.02h4.664z"/>
    </g>
  </g>
</svg>
